X:1
T:The Departure
L:1/8
M:4/4
I:linebreak $
K:Emin
V:1 treble 
V:1
|: (3GFE BE GE E2 | (3GFE BG F4 | (3GFE BE GE E2 | AB cA F4 :: (3GFE BE DEBE |$ (3GFE dB AF F2 | %6
 (3GFE BE DEBG | AB cA F4 :: e3 B cA A2 | GABG F3 f | gfeB cA A2 |$ GABG F4 :| %12
